src/lib/packages/icons/src/assets/line/money-bill-receive.svg

<svg xmlns="http://www.w3.org/2000/svg" width="24" height="24" fill="none"><path fill="currentColor" d="M21.75 7v5a.75.75 0 0 1-1.5 0V7c0-1.577-.673-2.25-2.25-2.25H6c-1.577 0-2.25.673-2.25 2.25v8c0 1.577.673 2.25 2.25 2.25h8a.75.75 0 0 1 0 1.5H6c-2.418 0-3.75-1.332-3.75-3.75V7c0-2.418 1.332-3.75 3.75-3.75h12c2.418 0 3.75 1.332 3.75 3.75ZM5 11a1 1 0 1 0 2 0 1 1 0 0 0-2 0Zm7-3.75A3.754 3.754 0 0 1 15.75 11 3.754 3.754 0 0 1 12 14.75 3.754 3.754 0 0 1 8.25 11 3.754 3.754 0 0 1 12 7.25Zm0 1.5A2.252 2.252 0 0 0 9.75 11 2.252 2.252 0 0 0 12 13.25 2.252 2.252 0 0 0 14.25 11 2.252 2.252 0 0 0 12 8.75Zm8.47 8.72-.72.72V15a.75.75 0 0 0-1.5 0v3.189l-.72-.72a.75.75 0 1 0-1.061 1.061l2 2a.749.749 0 0 0 1.06 0l2-2a.75.75 0 0 0-1.059-1.06Z"/></svg>

<svg width="24" height="24" viewBox="0 0 24 24" fill="none" xmlns="http://www.w3.org/2000/svg">
<path d="M21.75 7V12C21.75 12.414 21.414 12.75 21 12.75C20.586 12.75 20.25 12.414 20.25 12V7C20.25 5.423 19.577 4.75 18 4.75H6C4.423 4.75 3.75 5.423 3.75 7V15C3.75 16.577 4.423 17.25 6 17.25H14C14.414 17.25 14.75 17.586 14.75 18C14.75 18.414 14.414 18.75 14 18.75H6C3.582 18.75 2.25 17.418 2.25 15V7C2.25 4.582 3.582 3.25 6 3.25H18C20.418 3.25 21.75 4.582 21.75 7ZM5 11C5 11.552 5.448 12 6 12C6.552 12 7 11.552 7 11C7 10.448 6.552 10 6 10C5.448 10 5 10.448 5 11ZM12 7.25C14.068 7.25 15.75 8.932 15.75 11C15.75 13.068 14.068 14.75 12 14.75C9.932 14.75 8.25 13.068 8.25 11C8.25 8.932 9.932 7.25 12 7.25ZM12 8.75C10.759 8.75 9.75 9.759 9.75 11C9.75 12.241 10.759 13.25 12 13.25C13.241 13.25 14.25 12.241 14.25 11C14.25 9.759 13.241 8.75 12 8.75ZM20.47 17.47L19.75 18.19V15C19.75 14.586 19.414 14.25 19 14.25C18.586 14.25 18.25 14.586 18.25 15V18.189L17.53 17.469C17.237 17.176 16.762 17.176 16.469 17.469C16.176 17.762 16.176 18.237 16.469 18.53L18.469 20.53C18.538 20.599 18.621 20.654 18.713 20.692C18.805 20.73 18.902 20.75 18.999 20.75C19.096 20.75 19.194 20.73 19.285 20.692C19.377 20.654 19.46 20.599 19.529 20.53L21.529 18.53C21.822 18.237 21.822 17.762 21.529 17.469C21.237 17.177 20.763 17.177 20.47 17.47Z" fill="currentColor"/>
</svg>
